X:1
T:Title
%%score 1 { 2 | 3 }
L:1/8
Q:1/4=105
M:4/4
K:E
V:1 treble nm="Grand Piano, Soprano"
V:2 bass nm="Choir Pad, Erlangen, B. E. Warren 189"
V:3 bass 
V:1
 B,B, [B,E]2 [EG]2 [GB]2 | [EG][GB] [Ge]2 [GB]2 [GB]2 | [EG][GB] [FA]2 B,2 B,2 | %3
w: By~Barney~Elliott~Warren,~1897 * * * *|||
 [B,D][B,F][K:bass] [B,E]2 [B,E]2 B,2 | B,B,[K:treble] [B,E]2 [EG]2 [GB]2 | %5
w: ||
 [EG][GB] [Ge]2 [GB]2 [GB]2 | [EG][GB] [FA]2 B,2 B,2 | [B,D][B,F] [B,E]2 [B,D]2 [B,E]2 | %8
w: |||
 [GB][GB] [FB]2 [Fd]2 [Ad]2 | [Ac][Ac] [GB]2 [Ge]2 [Ge]2 | [GB][GB] [FB]2 [Fd]2 [Ad]2 | %11
w: |||
 [Ac][Ac] [GB]2 [Ge]2 [Ge]2 | B,B, [B,E]2 [EG]2 [GB]2 | [EG][GB] [Ge]2 [GB]2 [GB]2 | %14
w: |||
 [EG][GB] [FA]2 B,2 B,2 | [B,D][B,F] [B,E]2 [B,D]2 [B,E]2- | [B,E]6 z2 |] %17
w: |||
V:2
 G,G, G,2 B,2 B,2 | B,B, B,2 E2 E2 | B,B, B,2 A,2 A,2 | F,A, G,2 G,2 G,2 | G,G, G,2 B,2 B,2 | %5
 B,B, B,2 E2 E2 | B,B, B,2 B,2 B,2 | F,A, G,2 F,2 G,2 | B,B, B,2 B,2 B,2 | DD E2 B,2 B,2 | %10
 B,B, B,2 B,2 B,2 | DD E2 B,2 B,2 | G,G, G,2 B,2 B,2 | B,B, B,2 E2 E2 | B,B, B,2 B,2 B,2 | %15
 F,A, G,2 F,2 G,2- | G,6 z2 |] %17
V:3
 E,E, E,2 E,2 E,2 | E,E, E,2 E,2 E,2 | E,E, B,,2 B,,2 B,,2 | B,,B,, E,2 E,2 E,2 | %4
 E,E, E,2 E,2 E,2 | E,E, E,2 E,2 E,2 | E,E, B,,2 B,,2 B,,2 | B,,B,, B,,2 B,,2 E,2 | %8
 E,E, B,,2 B,,2 B,,2 | B,,B,, E,2 E,2 E,2 | E,E, B,,2 B,,2 B,,2 | B,,B,, E,2 E,2 E,2 | %12
 E,E, E,2 E,2 E,2 | E,E, E,2 E,2 E,2 | E,E, B,,2 B,,2 B,,2 | B,,B,, B,,2 B,,2 E,2- | E,6 z2 |] %17

